wwwroot/public/img/titano.svg

﻿<svg viewBox="0 0 64 45" fill="#fff" xmlns="http://www.w3.org/2000/svg" aria-hidden="true">
  <path d="M22.7734 16.3522c-.889-1.2535-2.1763-2.3256-4.2067-2.9977.9578 2.1673-.0771 3.7498-1.6399 6.1362-.5375.8202-1.1487 1.7537-1.7391 2.8506l4.5632 7.8685 4.9576-9.5569c-.4856-1.498-1.0275-3.0236-1.934-4.3007h-.0011Zm3.134 1.0788c3.0731-6.8967 8.4301-6.953 14.7111-7.0189 1.0208-.0107 2.0686-.0214 3.1638-.0693l4.512-7.96766-44.49217-.12958 4.39423 7.95184c.5583.0203 1.09067.0361 1.61967.0519 2.95317.0878 5.82907.1735 8.81217.7887l.0833.0174c2.8664.8158 4.6568 2.2726 5.8889 4.01.5167.741.9548 1.5338 1.307 2.3656Zm9.2391 2.1774c-1.5706-2.5701-2.6608-4.3548-2.0089-6.1452-2.6208.9104-4.7176 2.8732-6.0139 7.1548l5.1497 9.207 4.5069-7.4218c-.5634-1.0444-1.1301-1.9683-1.6338-2.7948Zm-1.9312 12.981-6.1407 10.9749-.9453 1.6901-.9949-1.6591-5.255-8.7615-.0164.0316-1.0247-1.7667-5.8984-10.1676-.3042-.5245.2732-.5408c.7431-1.4692 1.4935-2.6151 2.1408-3.6021 1.3971-2.1341 2.2005-3.3605.507-5.4472-1.9194-.2169-3.8421-.2744-5.80264-.3324-.77293-.0231-1.55037-.0462-2.2788-.076l-.63379-.0265-.30533-.5521L.918284 1.66192 0 0l1.90135.00506834L50.212.145349l1.9154.005632-.9425 1.664169-5.7576 10.16705-.3008.5318-.6118.0338c-1.2958.0721-2.6061.0856-3.8788.0991-1.4433.0147-2.8303.0293-4.1384.1482-1.9036 1.614-1.0141 3.0737.5633 5.6471.6113 1.0006 1.3065 2.1374 2.0011 3.485l.2862.5544-.3257.5368-5.8071 9.571Zm-12.1241-.0907 4.9677 8.2882 4.8934-8.7417-4.9982-8.9299-4.8629 9.3834Z"/>
</svg>

﻿<?xml version="1.0" encoding="utf-8"?>
<svg viewBox="0 0 64 45" fill="white" xmlns="http://www.w3.org/2000/svg" focusable="false" aria-hidden="true">
    <path d="M22.7734 16.3522C21.8844 15.0987 20.5971 14.0266 18.5667 13.3545C19.5245 15.5218 18.4896 17.1043 16.9268 19.4907C16.3893 20.3109 15.7781 21.2444 15.1877 22.3413L19.7509 30.2098L24.7085 20.6529C24.2229 19.1549 23.681 17.6293 22.7745 16.3522H22.7734ZM25.9074 17.431C28.9805 10.5343 34.3375 10.478 40.6185 10.4121C41.6393 10.4014 42.6871 10.3907 43.7823 10.3428L48.2943 2.37514L3.80213 2.24556L8.19636 10.1974C8.75466 10.2177 9.28703 10.2335 9.81603 10.2493C12.7692 10.3371 15.6451 10.4228 18.6282 11.038L18.7115 11.0554C21.5779 11.8712 23.3683 13.328 24.6004 15.0654C25.1171 15.8064 25.5552 16.5992 25.9074 17.431ZM35.1465 19.6084C33.5759 17.0383 32.4857 15.2536 33.1376 13.4632C30.5168 14.3736 28.42 16.3364 27.1237 20.618L32.2734 29.825L36.7803 22.4032C36.2169 21.3588 35.6502 20.4349 35.1465 19.6084ZM33.2153 32.5894L27.0746 43.5643L26.1293 45.2544L25.1344 43.5953L19.8794 34.8338L19.863 34.8654L18.8383 33.0987L12.9399 22.9311L12.6357 22.4066L12.9089 21.8658C13.652 20.3966 14.4024 19.2507 15.0497 18.2637C16.4468 16.1296 17.2502 14.9032 15.5567 12.8165C13.6373 12.5996 11.7146 12.5421 9.75406 12.4841C8.98113 12.461 8.20369 12.4379 7.47526 12.4081L6.84147 12.3816L6.53614 11.8295L0.918284 1.66192L0 0L1.90135 0.00506834L50.212 0.145349L52.1274 0.150981L51.1849 1.81515L45.4273 11.9822L45.1265 12.514L44.5147 12.5478C43.2189 12.6199 41.9086 12.6334 40.6359 12.6469C39.1926 12.6616 37.8056 12.6762 36.4975 12.7951C34.5939 14.4091 35.4834 15.8688 37.0608 18.4422C37.6721 19.4428 38.3673 20.5796 39.0619 21.9272L39.3481 22.4816L39.0224 23.0184L33.2153 32.5894ZM21.0912 32.4987L26.0589 40.7869L30.9523 32.0452L25.9541 23.1153L21.0912 32.4987Z" fill="#fff"></path>
</svg>
